X:1
T:60 Lessons for 2 Guitars, Op.168 - Joseph Küffner (1776 - 1856)
T:Leçon No.53
T:60 Lessons for 2 Guitars, Op.168 "à l'usage des commençants"
T:Joseph Küffner (1776 - 1856)
%%score { 1 ( 2 3 ) }
L:1/8
Q:1/4=80
M:2/4
K:F
V:1 treble-8 nm="Classical Guitar"
V:2 treble-8 nm="Guitare classique"
V:3 treble-8 
V:1
 c2 f2"^Andantino" | A2 c2 | B2 d2 | G2 B2 | A2 c2 | F2 A2 | GcBG | F2 z2 :: G2 c2 | E2 G2 | %10
 A2 c2 | F2 A2 | =B2 f2 | d2 =B2 | c2 c2 | =B2 _B2 | A2 f2 | A2 c2 | B2 d2 | G2 B2 | A2 c2 | %21
 F2 A2 | GcBG | F2 z2 :| %24
V:2
 z FAF | z FAF | z DBD | z EGE | z FAF | z FAF | z EGE | F,2 [CFA]2 :: z EGE | z EGE | z FAF | %11
 z FAF | z G=BG | z G=BG | ECEC | FCGC | z FAF | z FAF | z DBD | z EGE | z FAF | z FAF | z EGE | %23
 F,2 [CFA]2 :| %24
V:3
 F,4 | D4 | G,4 | C4 | F,4 | C4 | C4 | x4 :: C4 | C4 | C4 | C4 | D4 | F4 | x4 | x4 | F,4 | D4 | %18
 G,4 | C4 | F,4 | C4 | C4 | x4 :| %24

